X: 42351
T: Welcome Home From Newfoundland
R: jig
M: 6/8
K: Fmajor
cAF FGF|f3 edc|dBG GAG|d2c def|
cAF FGF|f3 edc|def gfe|f3 f3:|
|:agf f2g|a2b c'af|gec cdc|b3 b2z|
agf f2g|a2b c'af|gec cde|f3 f3:|

